Adwaita++/devices/16/video-single-display.svg

<svg height="16" width="16" xmlns="http://www.w3.org/2000/svg">
  <path d="m3 1c-1.662 0-3 1.338-3 3v7c0 1.662 1.338 3 3 3h10c1.662 0 3-1.338 3-3v-7c0-1.662-1.338-3-3-3zm4 4h2v6h-2v-4h-1v-1c.475-.078.82-.392 1-1zm1 11c3 0 4-1 4-1h-8s1 1 4 1z" fill="#474747"/>
</svg>

<svg xmlns="http://www.w3.org/2000/svg" width="16" height="16">
    <g fill="#474747">
        <path d="M3 1C1.338 1 0 2.338 0 4v7c0 1.662 1.338 3 3 3h10c1.662 0 3-1.338 3-3V4c0-1.662-1.338-3-3-3zm4 4h2v6H7V7H6V6c.475-.078.82-.392 1-1zM8 16c3 0 4-1 4-1H4s1 1 4 1z"/>
    </g>
</svg>
